!!!COM: Anon.
!!!OTL: I Want to Live
!!!ODT: <1918//
!!!MPN: Matsiwirus [Pine Wood, Pan]
!!!MLC: Fort Berthold Reservation, North Dakota, United States of America
!! Song was recorded during either the summer of 1912, 1915, or 1918.
!!!AGN: monody
!!!AST: Mandan and Hidatsa Men's Fox Society
!!!AMT: irregular
!!!RWG: Transcribed pitches, durations, and meters are only approximate.
!! Drum Tempo: MM63
!! Drum-rhythm (approximate): (12^ 12r 12) (12^ 12r 12) (12^ 12r 12) (12^ 12 12)
**kern
*ICvox
*Imale
*clefF4
*k[]
*M3/4
*MM63
8c
=1
4c
16c
8.d
16c
8.G
=2
4c
16c
8.c
16G
8.F
=3
4.G
8G
16G
8.F^
=4
8G
16G
16B-
4B-
16G
8.F
=5
4G
16G
8.G
16F
8.E
=6
8.F
16F
16F
[8.E
8.E]
16F
=7
4F
16G
8.F
16E
8.C
=8
4E
4C
8C
8C
=9
16C
[8.C
8C]
8C
4C
=10
[2C
8C]
16G
16G
=11
2G
16G
8.F
=12
4G
12G
12G
12A
8.G
16F
=13
4G
8G
8G
8.F
16E
=14
4F
12F
12F
12F
4E
=15
16F
8.E
8.F
16F
8.E
16C
=16
4E
2C
=17
16C
8.C
4.C
8C
=18
4C
4C
4r
==
*-
!!!CNT: Hidatsa
!!!TXO: Hidatsa
!!!OCY: United States
!!!OCL: Frances Densmore
!!!YOR: Frances Densmore, "Mandan and Hidatsa Music",
!!!YOR: Bulletin 80, page 120, No. 50
!!!PPR: Smithsonian Institution, Bureau of American Ethnology
!!!PPR: Government Printing Office
!!!PDT: 1923
!!!PPP: Washington, DC, United States of America
!!!YEC: Electronic Copyright 2000 David Huron
!!!YER: August 2000
!!!YEN: United States of America
!!!ENC: David Huron
!!!RDT: August 17, 2000
!!!EEV: Release 1.0
!!!AIN: tom, vox
